!!!COM: Mozart, Wolfgang Amadeus
!!!CDT: 1756/01/27/-1791/12/05/
!!!CNT: German
!!!OTL: Piano Sonata No. 13 in B-flat major
!!!SCT1: K<sup>1</sup> 332
!!!SCT2: K<sup>6</sup> 300k
!!!OMV: Mvmt. 3
!!!OMD: Allegro grazioso
!!!ODT: ~1783///
**kern	**kern	**dynam
*staff2	*staff1	*staff1/2
*clefF4	*clefG2	*clefG2
*k[b-e-]	*k[b-e-]	*k[b-e-]
*B-:	*B-:	*B-:
*M4/4	*M4/4	*M4/4
*met(c)	*met(c)	*met(c)
*MM144	*MM144	*MM144
=1-	=1-	=1-
4r	(4.ff\	p
4B-\	.	.
.	8dd\	.
4d\	4b-\)	.
4g\	4b-\	.
=2	=2	=2
4c\	(4ee-\	.
4e-\	4gg\)	.
4f\	4a/	.
4e-\	8r	.
.	8a/	.
=3	=3	=3
4d\	(8cc\L	.
.	8b-\)	.
4A\	(8dd\	.
.	8cc\J)	.
4B-\	(8ee-\L	.
.	8dd\)	.
4E-\ 4c\	(8ff\	.
.	8ee-\J)	.
=4	=4	=4
[2F\ (2B-\	(4.dd\	.
.	16ee-\LL	.
.	16dd\JJ	.
4F\] 4A\)	8cc\L	.
.	8dd\	.
4r	8ee-\	.
.	8een\J)	.
=5	=5	=5
4r	(4.ff\	.
4B-\	.	.
.	24ee-\LL	.
.	24dd\	.
.	24cc\JJ	.
4d\	4b-\)	.
4g\	4b-\	.
=6	=6	=6
(4c\	(4ee-\	.
4e-\)	4gg\)	.
4f\	4a/	.
4e-\	8r	.
.	8a/	.
=7	=7	=7
*^	*	*
4r	4d\	(8b-/L	.
.	.	8dd/)	.
4e-/	4E-\	(8g/	.
.	.	8cc/J	.
(4d/	2F\	(4b-/)	.
4c/)	.	4a/)	.
*v	*v	*	*
=8	=8	=8
4B-\	8b-/L	f
.	8f/	.
4r	8g/	.
.	8a/J	.
2r	8b-\L	.
.	8cc\	.
.	8dd\	.
.	8ee-\J	.
=9	=9	=9
(8B-\L	(4.ff\	.
8f\	.	.
8d\	.	.
8f\J	8dd\	.
8G\L	4b-\)	.
8d\	.	.
8B-\	4b-\	.
8d\J	.	.
=10	=10	=10
8E-\L	(4ee-\	.
8c\	.	.
.	32ffq/LLL	.
.	32ee-q/	.
.	32ddq/	.
.	32ee-q/JJJ	.
8G\	4gg\)	.
8c\J	.	.
8F\L	4a/	.
8e-\	.	.
8c\	8r	.
8e-\J	8a/	.
=11	=11	=11
*^	*	*
4r	4d\)	(8cc\L	.
.	.	8b-\)	.
2f/	4A\	(8dd\	.
.	.	8cc\J)	.
.	4B-\	(8ee-\L	.
.	.	8dd\)	.
4c/	4E-\	(8ff\	.
.	.	8ee-\J)	.
=12	=12	=12	=12
(2B-/	[2F\	(4.dd\	.
.	.	16ee-\LL	.
.	.	16dd\JJ	.
4A/)	4F\]	8cc\L	.
.	.	8dd\	.
4r	4r	8ee-\	.
.	.	8een\J)	.
*v	*v	*	*
=13	=13	=13
(8B-\L	(4.ff\	.
8f\	.	.
8d\	.	.
8f\J	24ee-\LL	.
.	24dd\	.
.	24cc\JJ	.
8G\L	8b-\L)	.
8d\	8b-\	.
8B-\	8b-\	.
8d\J	8b-\J	.
=14	=14	=14
8E-\L	(4ee-\	.
8c\	.	.
.	32ffq/LLL	.
.	32ee-q/	.
.	32ddq/	.
.	32ee-q/JJJ	.
8G\	4gg\)	.
8c\J	.	.
8F\L	4a/	.
8e-\	.	.
8c\	8r	.
8e-\J)	8aa\	.
=15	=15	=15
*^	*	*
2B-/	4D\	12bb-\L	.
.	.	(12ff\	.
.	.	12dd\J	.
.	4E-\	12gg\L	.
.	.	12ee-\	.
.	.	12cc\J	.
4d/	2F\	12ff\L	.
.	.	12dd\	.
.	.	12b-\J	.
4e-/	.	12ee-\L	.
.	.	12cc\	.
.	.	12a\J)	.
*v	*v	*	*
=16	=16	=16
4B-\ 4d\	4b-\	.
4BB-/	8r	.
.	8f'/	.
2r	8b-'\L	.
.	8a'\	.
.	8b-'\	.
.	8cc'\J	.
=17	=17	=17
4r	4dd\	.
(4B-\	4b-\ 4dd\	.
4G\	4b-\ (4dd\	.
4E-\)	4cc\ 4ee-\)	.
=18	=18	=18
4F\	4a\ 4cc\	.
4FF/	8r	.
.	8f'/	.
2r	8cc'\L	.
.	8b-'\	.
.	8cc'\	.
.	8dd'\J	.
=19	=19	=19
4r	4ee-\	.
(4c\	4g\ 4ee-\	.
4A\	4cc\ (4ee-\	.
4F\)	4a\ 4ff\)	.
=20	=20	=20
4B-\	4b-\ 4dd\	.
4BB-/	8r	.
.	8b-'\	.
2r	8dd'\L	.
.	8cc'\	.
.	8dd'\	.
.	8een'\J	.
=21	=21	=21
8r	4ff\	.
(8A\L	.	.
8c\	12r	.
.	(12ff\L	.
8A\J	.	.
.	12gg\J	.
4f\)	12aa\L	.
.	12gg\	.
.	12ff\J	.
4r	12een\L	.
.	12dd\	.
.	12cc\J	.
=22	=22	=22
8r	4b-\)	.
(8G\L	.	.
8B-\	12r	.
.	12een\L	.
8G\J	.	.
.	(12ff\J	.
4en\)	12gg\L	.
.	12ff\	.
.	12ee\J	.
4r	12dd\L	.
.	12cc\	.
.	12b-\J	.
=23	=23	=23
4f\	16a\LL	.
.	16cc\	.
.	16b-\	.
.	16a\JJ	.
4r	16b-\LL	.
.	16cc\	.
.	16dd\	.
.	16een\JJ	.
4r	16ff\LL)	.
.	16gg\	.
.	16aa\	.
.	16bb-\JJ	.
4F\	8ccc\	.
.	8f/ 8a/	.
=24	=24	=24
8C'\L	(4f/ 4a/	.
(8c\	.	.
8Bn\	4en/) 4g/	.
8c\J	.	.
8B-\L	(4.gg\	.
8c\	.	.
8B-\	.	.
8c\J	16een\LL	.
.	16cc\JJ	.
=25	=25	=25
8A\L	4ff\	.
8c\	.	.
8A\	4ff#\)	.
8c\J	.	.
8B-\L	(4.gg\	.
8c\	.	.
8B-\	.	.
8c\J	16een\LL	.
.	16cc\JJ	.
=26	=26	=26
8A\L	4ffn\)	.
8c\	.	.
8A\	4r	.
8c\J	.	.
8B-\L	8gg'\	.
8c\	(4gg\	.
8B-\	.	.
8c\J	16een\LL	.
.	16cc\JJ	.
=27	=27	=27
8A\L	8ff'\L)	.
8c\	8ff'\	.
8A\	8ff#'\	.
8c\J	8ff#'\J	.
8B-\L	8gg'\	.
8c\	(4gg\	.
8B-\	.	.
8c\J	16een\LL	.
.	16cc\JJ	.
=28	=28	=28
8A\L	4ffn\)	.
8c\	.	.
8A\	4r	.
8c\J	.	.
8B-\L	(16ff#\LL	.
.	16gg\	.
8c\	16aa\	.
.	16gg\JJ	.
8B-\	16ffn\LL	.
.	16een\	.
8c\J	16dd\	.
.	16cc\JJ)	.
=29	=29	=29
4A\)	(16ff\LL	.
.	16cc\	.
.	16aa\	.
.	16ff\JJ	.
4r	16ccc\LL	.
.	16aa\	.
.	16ccc\	.
.	16aa\JJ	.
4r	16ccc\LL	.
.	16bb-\	.
.	16aa\	.
.	16gg\JJ	.
*clefG2	*	*
4A/ 4f/	16ff\LL	.
.	16ee-\	.
.	16dd\	.
.	16cc\JJ	.
=30	=30	=30
4B-/ 4f/	16dd\LL	.
.	16b-\	.
.	16ff\	.
.	16dd\JJ	.
4r	16bb-\LL	.
.	16ff\	.
.	16ddd\	.
.	16bb-\JJ	.
4r	16ddd\LL	.
.	16ccc\	.
.	16bb-\	.
.	16aa\JJ	.
4B-/ 4f/ 4g/	16gg\LL	.
.	16ff\	.
.	16een\	.
.	16dd\JJ	.
=31	=31	=31
8c/L	2cc\)	.
(8a/	.	.
8f/	.	.
8a/J	.	.
8c/L	4.gg\	.
8b-/	.	.
8en/	.	.
8b-/J	16ff\LL	.
.	16gg\JJ	.
=32	=32	=32
4f/)	(16aa\LL	.
.	16bb-\	.
.	16ccc\	.
.	16bb-\JJ	.
8r	16aa\LL	.
.	16gg\	.
8g/	16ff\	.
.	16een\JJ	.
4a/	16ff\LL	.
.	16gg\	.
.	16aa\	.
.	16gg\JJ	.
8r	16ff\LL	.
.	16ee-\	.
*clefF4	*	*
8A\	16dd\	.
.	16cc#\JJ	.
=33	=33	=33
4B-\	16dd\LL	.
.	16een\	.
.	16ff\	.
.	16ee\JJ	.
4r	16dd\LL	.
.	16ccn\	.
.	16b-\	.
.	16a\JJ	.
4BBB-/ 4BB-/	16g/LL	.
.	16a/	.
.	16b-/	.
.	16a/JJ	.
4r	16g/LL	.
.	16f/	.
.	16en/	.
.	16d/JJ	.
=34	=34	=34
(8C\L	8c/L	.
8A\	16d/L	.
.	16en/JJ	.
8F\	16f/LL	.
.	16g/	.
8A\J	16a/	.
.	16b-/JJ	.
8C\L	16cc\LL	.
.	16dd\	.
8A\	16een\	.
.	16ff\JJ	.
8F\	16gg\LL	.
.	16aa\	.
8A\J	16bb-\	.
.	16ccc\JJ)	.
=35	=35	=35
.	(32ffq/LLL	.
.	32ggq/	.
.	32aaq/JJJ	.
8C\L	1gg)	.
8B-\	.	.
8En\	.	.
8B-\J	.	.
8C\L	.	.
8B-\	.	.
8E\	.	.
8B-\J	.	.
=36	=36	=36
*^	*	*
.	(16ffq/LL	.	.
.	16ggq/JJ)	.	.
2.r	4F\ 4A\)	8ff\L	.
.	.	8ff\J	.
.	4F\ 4A\	8r	.
.	.	8ff\	.
.	4r	8ff\L	.
.	.	8ff\J	.
(4A/	4F\	8r	.
.	.	8ff\	.
=37	=37	=37	=37
4G/ 4B-/)	4F\	8ff\L	.
.	.	8ff\J	.
4G/ 4B-/	4F\	8r	.
.	.	8ff\	.
4r	4r	8ff\L	.
.	.	8ff\J	.
4G#/ (4Bn/	4F\	8r	.
.	.	8ff\	.
=38	=38	=38	=38
4A/ 4c/	2F\	8ff\L	.
.	.	8ff\J	.
4A/ 4c#/	.	8r	.
.	.	8ff\	.
4B-/ 4d/	2F\	8ff\L	.
.	.	8ff\J	.
4Bn/ 4d/)	.	8r	.
.	.	8ff\	.
*v	*v	*	*
=39	=39	=39
1F 1cn 1e-	(8ff\L	.
.	8aa\)	.
.	(8aa\	.
.	(8ccc\J)	.
.	8ccc\L	.
.	8eee-\)	.
.	(8eee-\	.
.	8ccc\J)	.
=40	=40	=40
1r	(8ccc\L	.
.	8aa\)	.
.	(8aa\	.
.	8ff\J	.
.	(8ff\L)	.
.	(8een\)	.
.	8ee\	.
.	8ff\J)	.
=41	=41	=41
4r	(4.ff\	p
4B-\	.	.
.	8dd\)	.
4d\	4b-\	.
4g\	4b-\	.
=42	=42	=42
4c\	(4ee-\	.
4e-\	4gg\)	.
4f\	4a/	.
4e-\	8r	.
.	8a/	.
=43	=43	=43
4d\	(8cc\L	.
.	8b-\)	.
4A\	(8dd\	.
.	8cc\J)	.
4B-\	(8ee-\L	.
.	8dd\)	.
4E-\ 4c\	(8ff\	.
.	8ee-\J)	.
=44	=44	=44
[2F\ (2B-\	(4.dd\	.
.	16ee-\LL	.
.	16dd\JJ	.
4F\] 4A\)	8cc\L	.
.	8dd\	.
4r	8ee-\	.
.	8een\J)	.
=45	=45	=45
4r	(4.ff\	.
4B-\	.	.
.	24ee-\LL	.
.	24dd\	.
.	24cc\JJ	.
4d\	4b-\)	.
4g\	4b-\	.
=46	=46	=46
(4c\	(4ee-\	.
4e-\)	4gg\)	.
4f\	4a/	.
4e-\	8r	.
.	8a/	.
=47	=47	=47
*^	*	*
4r	4d\	(8b-/L	.
.	.	8dd/)	.
4e-/	4E-\	(8g/	.
.	.	8cc/J)	.
4d/	2F\	(4b-/	.
4c/	.	4a/)	.
*v	*v	*	*
=48	=48	=48
4B-\	8b-/L	f
.	8f/	.
4r	8g/	.
.	8a/J	.
2r	8b-\L	.
.	8cc\	.
.	8dd\	.
.	8ee-\J	.
=49	=49	=49
(8B-\L	(4.ff\	.
8f\	.	.
8d\	.	.
8f\J	8dd\	.
8G\L	4b-\)	.
8d\	.	.
8B-\	4b-\	.
8d\J	.	.
=50	=50	=50
8E-\L	(4ee-\	.
8c\	.	.
.	32ffq/LLL	.
.	32ee-q/	.
.	32ddq/	.
.	32ee-q/JJJ	.
8G\	4gg\)	.
8c\J	.	.
8F\L	4a/	.
8e-\	.	.
8c\	8r	.
8e-\J	8a/	.
=51	=51	=51
*^	*	*
4r	4d\)	(8cc\L	.
.	.	8b-\)	.
2f/	4A\	(8dd\	.
.	.	8cc\J)	.
.	4B-\	(8ee-\L	.
.	.	8dd\)	.
4c/	4E-\	(8ff\	.
.	.	8ee-\J)	.
=52	=52	=52	=52
(2B-/	[2F\	(4.dd\	.
.	.	16ee-\LL	.
.	.	16dd\JJ	.
4A/)	4F\]	8cc\L	.
.	.	8dd\	.
4r	4r	8ee-\	.
.	.	8een\J)	.
*v	*v	*	*
=53	=53	=53
8B-\L	(4.ff\	.
8f\	.	.
8d\	.	.
8f\J	24ee-\LL	.
.	24dd\	.
.	24cc\JJ	.
8G\L	8b-\L)	.
8d\	8b-\	.
8B-\	8b-\	.
8d\J	8b-\J	.
=54	=54	=54
8E-\L	(4ee-\	.
8c\	.	.
.	32ffq/LLL	.
.	32ee-q/	.
.	32ddq/	.
.	32ee-q/JJJ	.
8G\	4gg\)	.
8c\J	.	.
8F\L	4a/	.
8e-\	.	.
8c\	8r	.
8e-\J	8aa\	.
=55	=55	=55
*^	*	*
2B-/	4D\	(12bb-\L	.
.	.	12ff\	.
.	.	12dd\J	.
.	4E-\	12gg\L	.
.	.	12ee-\	.
.	.	12cc\J	.
4d/	2F\	12ff\L	.
.	.	12dd\	.
.	.	12b-\J	.
4e-/	.	12ee-\L	.
.	.	12cc\	.
.	.	12a\J	.
=56	=56	=56	=56
4d/	4B-\	4b-\)	.
4BB-/	2.r	8r	.
.	.	8f'/	.
2r	.	8b-'\L	.
.	.	8a'\	.
.	.	8b-'\	.
.	.	8cc'\J	.
*v	*v	*	*
=57	=57	=57
4r	4dd\	.
(4B-\	4b-\ 4dd\	.
4G\	4b-\ (4dd\	.
4E-\)	4cc\ 4ee-\)	.
=58	=58	=58
4F\	4a\ 4cc\	.
4FF/	8r	.
.	8f'/	.
2r	8cc'\L	.
.	8b-'\	.
.	8cc'\	.
.	8dd'\J	.
=59	=59	=59
4r	4ee-\	.
(4c\	4g\ 4ee-\	.
4A\	4cc\ (4ee-\	.
4F\)	4a\ 4ff\)	.
=60	=60	=60
4B-\	4b-\ 4dd\	.
4BB-/	8r	.
.	8b-'\	.
2r	8dd'\L	.
.	8cc'\	.
.	8dd'\	.
.	8ee-'\J	.
=61	=61	=61
4r	4ff'\	.
4B-'\ (4d'\	(4ff'\	.
4B-'\ 4d'\	4ff'\	.
4B-'\ 4d'\)	4ff'\)	.
=62	=62	=62
*	*^	*
2A\ 2c\	(1ff#	8r	.
.	.	8cc\L	.
.	.	8dd\	.
.	.	(8ee-\J)	.
2D\ 2A\	.	8ee-\L	.
.	.	(8dd\)	.
.	.	8dd\	.
.	.	8cc\J)	.
=63	=63	=63	=63
*^	*	*	*
8r	1E-	2gg/	2b-\	.
(8G/L	.	.	.	.
8A/	.	.	.	.
8B-/J	.	.	.	.
(8B-/L)	.	2r	2cc#\	.
8A/	.	.	.	.
(8A/)	.	.	.	.
8G/J)	.	.	.	.
*	*	*v	*v	*
=64	=64	=64	=64
4F#/	4D\	4dd\	.
2.r	4r	8.r	.
.	.	(16d/	.
.	2r	4dd\)	.
.	.	4dd\	.
*v	*v	*	*
=65	=65	=65
(8G\L	(4.bb-\	.
8B-\	.	.
8d\	.	.
8B-\J	24aa\LL	.
.	24gg\	.
.	24ff#\JJ	.
8G\L	4gg\)	.
8B-\	.	.
8d\	(4dd\	.
8B-\J	.	.
=66	=66	=66
8G\L	4ee-\)	.
8c\	.	.
8e-\	8.r	.
8c\J	.	.
.	(16g/	.
8G\L	4gg\)	.
8c\	.	.
8e-\	4gg\	.
8c\J	.	.
=67	=67	=67
8G\L	(4.eee-\	.
8c\	.	.
8e-\	.	.
8c\J	24ddd\LL	.
.	24ccc\	.
.	24bb-\JJ	.
8G\L	4cccn\)	.
8c\	.	.
8e-\	(4ee-\	.
8c\J	.	.
=68	=68	=68
8G\L	4dd\)	.
8B-\	.	.
8d\J)	8r	.
8r	(8cc#\	.
2r	8dd\L)	.
.	8bb-'\	.
.	8aa'\	.
.	8gg'\J	.
=69	=69	=69
4A\ 4c\ (4e-\	(8.ff#\L	.
.	32gg\LL	.
.	32aa\JJJ	.
8B-\ 8d\)	8gg\L	.
8r	8gg'\J)	.
2r	(8ccc#\L	.
.	8ddd\)	.
.	8bb-'\	.
.	8gg'\J	.
=70	=70	=70
4A\ 4c\ (4e-\	(8.ff#\L	.
.	32gg\LL	.
.	32aa\JJJ	.
8B-\ 8d\)	8gg\L)	.
8r	8dd'\J	.
2r	8gg'\L	.
.	8gg'\	.
.	8gg'\	.
.	8gg'\J	.
=71	=71	=71
*^	*	*
2B-/	1E-	(8.gg\L	.
.	.	32aa\LL	.
.	.	32bb-\JJJ	.
.	.	8aa\L	.
.	.	8gg\J	.
2G/	.	8ff\L	.
.	.	8ee-\	.
.	.	8dd\	.
.	.	8cc#\J)	.
*v	*v	*	*
=72	=72	=72
4D\ 4F#\	(8cc#\L	.
.	8dd\J)	.
4D\ 4F#\ 4A\	(4dd'\	.
4D\ 4F#\ 4A\	4dd'\	.
4D\ 4F#\ 4A\	4dd'\)	p
=73	=73	=73
.	(16cc#q/LL	.
.	16ddq/	.
.	16eenq/JJ	.
4r	1dd)	.
4D\ 4Fn\ 4A\	.	.
4D\ 4F\ 4A\	.	.
4D\ 4F\ 4A\	.	.
=74	=74	=74
4r	1ff	.
4D\ 4F\ 4B-\	.	.
4D\ 4F\ 4B-\	.	.
4D\ 4F\ 4B-\	.	.
=75	=75	=75
4r	1A- 1d	.
4BB-\ 4F\	.	.
4BB-\ 4F\	.	.
4BB-\ 4F\	.	.
=76	=76	=76
*	*^	*
4EE-/ 4E-/	[2e-/	4G\	.
(4E-\	.	2.r	.
4G\	(8.e-/L]	.	p
.	(16B-/k)	.	.
4A-\	8.d/	.	.
.	16B-/Jk)	.	.
*	*v	*v	*
=77	=77	=77
4G\	(8.e-/L	.
.	(16B-/k)	.
4D\	8.f/	.
.	(16B-/Jk)	.
4E-\	8.g/L	.
.	16B-/k)	.
4F\)	(8.a-/	.
.	16B-/Jk)	.
=78	=78	=78
4r	[2f/	.
(4BB-/	.	.
4D/	(8.f/L]	.
.	16B-/k)	.
4C#/	(8.en/	.
.	16B-/Jk)	.
=79	=79	=79
4D\	(8.f/L	.
.	(16B-/k)	.
4En\	8.g/	.
.	16B-/Jk)	.
4F\	(8.a-/L	.
.	16B-/k)	.
4D\)	(8.b-/	.
.	16B-/Jk)	.
=80	=80	=80
4E-\	4g/	.
4EE-/	8r	.
.	8b-\	.
4r	(8.ee-\L	.
.	16ff\k	.
4G\ 4e-\	8.gg\)	.
.	16b-'\Jk	.
=81	=81	=81
4r	(8.cc\L	.
.	16dd\k	.
4A-\ 4e-\	8.ee-\)	.
.	16g'\Jk	.
4r	(8.a-\L	.
.	16b-\k	.
4c\ 4e-\	8.cc\)	.
.	16a-'\Jk	.
=82	=82	=82
4B-\ 4e-\	4g/	.
4BB-/	8r	.
.	8b-\	.
4r	(8.ee-\L	.
.	16ff\k	.
4G\ 4e-\	8.gg\)	.
.	16bn'\Jk	.
=83	=83	=83
4r	(8.cc\L	.
.	16dd\k	.
4A-\ 4e-\	8.ee-\)	.
.	16g'\Jk	.
4r	(8.a-\L	.
.	16b-\k	.
4c\ 4e-\	8.cc\)	.
.	16a-'\Jk	.
=84	=84	=84
4B-\ 4e-\	4g/	.
4BB-/	8r	.
.	8g/	p
4r	(8b-/L	.
.	8an/J)	.
4c\ 4e-\	8r	.
.	8a/	.
=85	=85	=85
4r	(8cc\L	.
.	8b-\J)	.
4G\ 4e-\	8r	.
.	8bn\	<
4A-\ 4e-\	(8dd\L	.
.	8cc\)	.
4F\ 4A-\	(8ee-\	.
.	8dd\J)	.
=86	=86	=86
4G\ 4B-\	(8ff\L	.
.	8ee-\	.
4G\ 4B-\	(8ff\)	.
.	8een\J)	.
4F\ 4A-\ 4B-\	(8gg\L	.
.	8ff\)	.
4E-\ 4G\ 4B-\	(8aa-\	.
.	8gg\J)	.
=87	=87	=87
4D\ 4F\ 4B-\	(8bb-\L	f
.	8aa-\J)	.
4r	4r	.
2r	4r	.
.	8r	.
.	8ff\	p
*clefG2	*	*
=88	=88	=88
*^	*	*
4e-/ 4b-/	2r	(8.gg\L	.
.	.	(16ee-\k)	.
4A-/ 4a-/	.	8.cc\	.
.	.	16ff\Jk)	.
(4g/	2B-\	(4ee-\	.
4f/)	.	4dd\)	.
*v	*v	*	*
*clefF4	*	*
=89	=89	=89
4D\ 4F\ 4B-\	(8bb-\L	f
.	8aa-\J)	.
4r	4r	.
2r	4r	.
.	8r	.
.	8ff\	p
*clefG2	*	*
=90	=90	=90
*^	*	*
4e-/ 4b-/	2r	(8.gg\L	.
.	.	16ee-\k)	.
4A-/ 4a-/	.	(8.cc\	.
.	.	(16ff\Jk)	.
(4g/	2B-\	4ee-\	.
4f/)	.	4dd\)	.
*v	*v	*	*
=91	=91	=91
.	32gq/	.
2r	(4.gg\	.
.	8ee-\	.
2e-/ 2g/	4cc\)	.
.	4cc\	.
=92	=92	=92
(2d/ 2bn/	(4ff\	.
.	4aa-\)	.
4f/) 4a-/	4bn\	.
4r	8r	.
.	8b\	.
=93	=93	=93
*^	*	*
1g	4e-\	(8dd\L	.
.	.	8cc\)	.
.	4Bn\	(8ee-\	.
.	.	8dd\J)	.
.	4c\	(8ff\L	.
.	.	8ee-\J)	.
.	4d\	8r	.
.	.	8bn\	.
=94	=94	=94	=94
2.g/	4e-\	(8dd\L	.
.	.	8cc\)	.
.	4Bn\	(8ee-\	.
.	.	8dd\J)	.
.	4c\	(8ff\L	.
.	.	8ee-\)	.
4r	4r	(8ff\	.
.	.	8een\J)	.
*v	*v	*	*
=95	=95	=95
2r	(4.ff\	.
.	8dd\	.
2d/ 2f/	4b-\)	.
.	4b-\	.
=96	=96	=96
(2c/ 2an/	(4ee-\	.
.	4gg-\)	.
4e-/) 4g-/	4an/	.
4r	8r	.
.	8a/	.
=97	=97	=97
*^	*	*
1f	4d-\	(8cc\L	.
.	.	8b-\)	.
.	4A\	(8dd-\	.
.	.	8cc\J)	.
.	4B-\	(8ee-\L	.
.	.	8dd-\J)	.
.	4c\	8r	.
.	.	8a/	.
=98	=98	=98	=98
2.f/	4d-\	(8cc\L	.
.	.	8b-\)	.
.	4A\	(8dd-\	.
.	.	8cc\J	.
.	4B-\	(8ee-\L)	.
.	.	8dd-\J)	.
4f/	4B-\	8r	.
.	.	8dd-\	.
*v	*v	*	*
=99	=99	=99
4r	(8dd-\L	.
.	8cc-\J)	.
*clefF4	*	*
4A-\ 4f\	8r	.
.	8cc-\	.
4r	(8cc-\L	.
.	8b-\J)	.
4G-\ 4d-\	8r	.
.	(8b-\	.
=100	=100	=100
4r	8b-\L	.
.	8aa-\J)	.
4F\ 4dn\	8r	.
.	8aa-\	.
4r	(8aa-\L	.
.	8gg-\J)	.
4E-\ 4e-\	8r	.
.	8gg-\	.
=101	=101	=101
4r	(8gg-\L	.
.	8ff\J)	.
4F\ 4d-\	8r	.
.	8ff\	.
4r	(8ff\L	.
.	8een\J)	.
4G-\ 4d-\	8r	.
.	8ee\	.
=102	=102	=102
*^	*	*
2en/	1G-	(4.bb-\	.
.	.	8ccc\	.
2B-/	.	4ddd-\)	.
.	.	4een\	.
=103	=103	=103	=103
2An/	1F	(8ff\L	.
.	.	8een\	.
.	.	8ff\	.
.	.	8cc\J	.
2B-/	.	8ee-\L	.
.	.	8dd-\)	.
.	.	8cc\	.
.	.	8b-\J	.
=104	=104	=104	=104
2A/	1F	8gg-\L	.
.	.	(8ff\	.
.	.	8een\	.
.	.	8ff\J	.
2B-/	.	8ee-\L	.
.	.	8dd-\	.
.	.	8cc\)	.
.	.	8b-\J	.
*v	*v	*	*
=105	=105	=105
8f\L	4a\ 4cc\	.
8f\J	.	.
8r	4b-\ (4dd-\	.
8f\	.	.
8f\L	4a\ 4cc\)	.
8f\J	.	.
8r	4b-\ 4een\	.
8f\	.	.
=106	=106	=106
8f\L	4a\ 4ff\	.
8f\J	.	.
8r	4b-\ (4dd-\	.
8f\	.	.
8f\L	4a\ 4cc\)	.
8f\J	.	.
8r	4b-\ 4een\	.
8f\	.	.
=107	=107	=107
*^	*	*
4F\ 4f\	2.r	8a\ 8ff\L	.
.	.	8ff\J	.
4F\ 4A\	.	8r	.
.	.	8ff\	.
4r	.	8ff\L	.
.	.	8ff\J	.
4F\	(4A/	8r	.
.	.	8ff\	.
=108	=108	=108	=108
4G/ 4B-/)	4F\	8ff\L	.
.	.	8ff\J	.
4G/ 4B-/	4F\	8r	.
.	.	8ff\	.
4r	4r	8ff\L	.
.	.	8ff\J	.
4G#/ (4Bn/	4F\	8r	.
.	.	8ff\	.
=109	=109	=109	=109
4A/ 4c/)	2F\	8ff\L	.
.	.	8ff\J	.
4A/ (4c#/	.	8r	.
.	.	8ff\	.
4B-/ 4d/)	2F\	8ff\L	.
.	.	8ff\J	.
4Bn/ 4d/	.	8r	.
.	.	8ff\	.
*v	*v	*	*
=110	=110	=110
1F 1cn 1e-	8ff\	.
.	(8f/L	.
.	8en/	.
.	8f/J	.
.	8g-/L	.
.	8gn/	.
.	8a-/	.
.	8an/J	.
=111	=111	=111
1r	8b-\L	.
.	8bn\	.
.	8cc\	.
.	8cc#\J	.
.	8dd\L	.
.	8ee-\	.
.	8een\	.
.	8ff\J)	.
=112	=112	=112
4r	(4.ff\	p
4B-\	.	.
.	8dd\	.
4d\	4b-\)	.
4g\	4b-\	.
=113	=113	=113
4c\	(4ee-\	.
4e-\	4gg\)	.
4f\	4a/	.
4e-\	8r	.
.	8a/	.
=114	=114	=114
4d\	(8cc\L	.
.	8b-\)	.
4A\	(8dd\	.
.	8cc\J)	.
4B-\	(8ee-\L	.
.	8dd\)	.
4E-\ 4c\	(8ff\	.
.	8ee-\J)	.
=115	=115	=115
[2F\ (2B-\	(4.dd\	.
.	16ee-\LL	.
.	16dd\JJ	.
4F\] 4A\)	8cc\L	.
.	8dd\	.
4r	8ee-\	.
.	8een\J)	.
=116	=116	=116
4r	(4.ff\	.
4B-\	.	.
.	24ee-\LL	.
.	24dd\	.
.	24cc\JJ	.
4d\	4b-\)	.
4g\	4b-\	.
=117	=117	=117
(4c\	(4ee-\	.
4e-\)	4gg\)	.
4f\	4a/	.
4e-\	8r	.
.	8a/	.
=118	=118	=118
*^	*	*
4r	4d\	(8b-/L	.
.	.	8dd/)	.
4e-/	4E-\	(8g/	.
.	.	8cc/J)	.
(4d/	2F\	(4b-/	.
4c/)	.	4a/)	.
*v	*v	*	*
=119	=119	=119
4B-\	8b-/L	f
.	8f/	.
4r	8g/	.
.	8a/J	.
2r	8b-\L	.
.	8cc\	.
.	8dd\	.
.	8ee-\J	.
=120	=120	=120
(8B-\L	(4.ff\	.
8f\	.	.
8d\	.	.
8f\J	8dd\	.
8G\L	4b-\)	.
8d\	.	.
8B-\	4b-\	.
8d\J	.	.
=121	=121	=121
8E-\L	(4ee-\	.
8c\	.	.
.	32ffq/LLL	.
.	32ee-q/	.
.	32ddq/	.
.	32ee-q/JJJ	.
8G\	4gg\)	.
8c\J	.	.
8F\L	4a/	.
8e-\	.	.
8c\	8r	.
8e-\J	8a/	.
=122	=122	=122
*^	*	*
4r	4d\)	(8cc\L	.
.	.	8b-\)	.
2f/	4A\	(8dd\	.
.	.	8cc\J)	.
.	4B-\	(8ee-\L	.
.	.	8dd\	.
4c/	4E-\	(8ff\)	.
.	.	8ee-\J)	.
=123	=123	=123	=123
(2B-/	[2F\	(4.dd\	.
.	.	16ee-\LL	.
.	.	16dd\JJ	.
4A/)	4F\]	8cc\L	.
.	.	8dd\	.
4r	4r	8ee-\	.
.	.	8een\J)	.
*v	*v	*	*
=124	=124	=124
(8B-\L	(4.ff\	.
8f\	.	.
8d\	.	.
8f\J	24ee-\LL	.
.	24dd\	.
.	24cc\JJ	.
8G\L	8b-\L)	.
8d\	8b-\	.
8B-\	8b-\	.
8d\J	8b-\J	.
=125	=125	=125
8E-\L	(4ee-\	.
8c\	.	.
.	32ffq/LLL	.
.	32ee-q/	.
.	32ddq/	.
.	32ee-q/JJJ	.
8G\	4gg\)	.
8c\J	.	.
8F\L	4a/	.
8e-\	.	.
8c\	8r	.
8e-\J)	8aa\	.
=126	=126	=126
*^	*	*
2B-/	4D\	(12bb-\L	.
.	.	12ff\	.
.	.	12dd\J	.
.	4E-\	12gg\L	.
.	.	12ee-\	.
.	.	12cc\J	.
4d/	2F\	12ff\L	.
.	.	12dd\	.
.	.	12b-\J	.
4e-/	.	12ee-\L	.
.	.	12cc\	.
.	.	12a\J	.
=127	=127	=127	=127
4d/	4B-\	4b-\)	.
4BB-/	2.r	8r	.
.	.	8f'/	.
2r	.	8b-'\L	.
.	.	8a'\	.
.	.	8b-'\	.
.	.	8cc'\J	.
*v	*v	*	*
=128	=128	=128
4r	4dd\	.
(4B-\	4b-\ 4dd\	.
4G\	4b-\ (4dd\	.
4E-\)	4cc\ 4ee-\)	.
=129	=129	=129
4F\	4a\ 4cc\	.
4FF/	8r	.
.	8f'/	.
2r	8cc'\L	.
.	8b-'\	.
.	8cc'\	.
.	8dd'\J	.
=130	=130	=130
4r	4ee-\	.
(4c\	4g\ 4ee-\	.
4A\	4cc\ (4ee-\	.
4F\)	4a\ 4ff\)	.
=131	=131	=131
4B-\	4b-\ 4dd\	.
4BB-/	8r	.
.	8b-'\	.
2r	8dd'\L	.
.	8ee-'\	.
.	8ff'\	.
.	8gg'\J	.
=132	=132	=132
4r	4aa-\	.
4DD/ 4D/	4Bn/ 4f/ 4a-/	.
4DD/ 4D/	4B/ 4f/ 4a-/	.
4CC/ 4C/	4c/ 4f/ 4a-/	.
=133	=133	=133
4BBBn/ 4BBn/	4d/ 4f/ 4g/	.
4Bn\	8r	.
.	8dd'\	.
4r	8gg'\L	.
.	8ff#'\	.
4B\ 4g\	8gg'\	.
.	8dd\J	.
=134	=134	=134
4c\ 4g\	(8ffn\L	.
.	8ee-\J)	.
4C/	8r	.
.	8g/	.
2r	(16cc\LL	.
.	16bn\	.
.	16dd\	.
.	16cc\JJ	.
.	16ee-\LL	.
.	16dd\	.
.	16ff\	.
.	16ee-\JJ	.
=135	=135	=135
4r	4gg\)	.
4CC/ 4C/	4c/ 4e-/ 4g/	.
4CC/ 4C/	4c/ 4e-/ 4g/	.
4BBB-/ 4BB-/	4c/ 4e-/ 4g-/	.
=136	=136	=136
4AAA/ 4AA/	4c/ 4e-/ 4f/	.
4A\	8r	.
.	8cc'\	.
4r	8ff'\L	.
.	8een'\	.
4A\ 4f\	8ff'\	.
.	8cc'\J	.
=137	=137	=137
4B-\ 4f\	(8ee-\L	.
.	8dd\J)	.
4BB-/	12r	.
.	(12bb-\L	.
.	12aa\J	.
2r	12bb-\L	.
.	12aa\	.
.	12gg\J	.
.	12ff\L	.
.	12ee-\	.
.	12dd\J	.
=138	=138	=138
8r	4cc\)	.
(8E-\L	.	.
8B-\	12r	.
.	(12cc\L	.
8G\J	.	.
.	12dd\J	.
4c\)	12ee-\L	.
.	12dd\	.
.	12cc\J	.
4r	12gg\L	.
.	12ff\	.
.	12ee-\J	.
=139	=139	=139
8r	4dd\)	.
8F\L	.	.
(8B-\	12r	.
.	(12bb-\L	.
8A-\J	.	.
.	12aa\J	.
4d\)	12bb-\L	.
.	12aa-\	.
.	12gg\J	.
4r	12ff\L	.
.	12ee-\	.
.	12dd\J	.
=140	=140	=140
8r	4ee-\)	.
(8G\L	.	.
8e-\	12r	.
.	(12ee-\L	.
8B-\J	.	.
.	12ff\J	.
4g\)	12gg\L	.
.	12ff\	.
.	12ee-\J	.
4r	12bb-\L	.
.	12aa-\	.
.	12gg\J	.
=141	=141	=141
8r	4ff\)	.
(8D\L	.	.
8B-\	12r	.
.	(12bb-\L	.
8F\J	.	.
.	12aan\J	.
4d\)	12bb-\L	.
.	12aa-\	.
.	12gg\J	.
4r	12ff\L	.
.	12gg\	.
.	12aa-\J	.
=142	=142	=142
*^	*	*
2r	[1E-	12gg\L	.
.	.	12bb-\	.
.	.	12aan\J	.
.	.	12gg\L	.
.	.	12aa\	.
.	.	12bb-\J)	.
2G/	.	(12ee-\L	.
.	.	12gg\	.
.	.	12ff\J	.
.	.	12ee-\L	.
.	.	12ff\	.
.	.	12gg\J)	.
=143	=143	=143	=143
2c/	2E-\]	(12cc\L	.
.	.	12ee-\	.
.	.	12dd\J	.
.	.	12cc\L	.
.	.	12dd\	.
.	.	12ee-\J)	.
2c/	2En\	(12g/L	.
.	.	12b-/	.
.	.	12a/J	.
.	.	12g/L	.
.	.	12a/	.
.	.	12b-/J	.
*v	*v	*	*
=144	=144	=144
8F\L	16a/LL	.
.	16f/	.
8c\	16g/	.
.	16a/JJ	.
8A\	16b-\LL	.
.	16cc\	.
8c\J	16dd\	.
.	16een\JJ	.
8F\L	16ff\LL	.
.	16gg\	.
8c\	16aa\	.
.	16bb-\JJ	.
8A\	8ccc\L)	.
8c\J	8ee-\J	.
=145	=145	=145
8F\L	(16dd\LL	.
.	16b-\	.
8d\	16cc\	.
.	16dd\JJ	.
8B-\	16ee-\LL	.
.	16ff\	.
8d\J	16gg\	.
.	16aa\JJ	.
8F\L	16bb-\LL	.
.	16ccc\	.
8d\	16ddd\	.
.	16eee-\JJ	.
8B-\	8fff\L)	.
8d\J	8bb-\J	.
=146	=146	=146
8F\L	(16aa\LL	.
.	16bb-\	.
8e-\	16ccc\	.
.	16bb-\JJ	.
8c\	16aa\LL	.
.	16bb-\	.
8e-\J	16ccc\	.
.	16ddd\JJ	.
8F\L	16eee-\LL	.
.	16ddd\	.
8c\	16ccc\	.
.	16bb-\JJ	.
8A\	16aa\LL	.
.	16gg\	.
8c\J	16ff\	.
.	16ee-\JJ	.
=147	=147	=147
8F\L	16dd\LL	.
.	16ff\	.
8d\	16ee-\	.
.	16dd\JJ	.
8B-\	16ee-\LL	.
.	16ff\	.
8d\J	16gg\	.
.	16aa\JJ	.
8F\L	16bb-\LL	.
.	16aa\	.
8d\	16gg\	.
.	16ff\JJ	.
8B-\	16ee-\LL	.
.	16dd\	.
8d\J	16cc\	.
.	16b-\JJ)	.
=148	=148	=148
4F\ 4A\ 4c\	4a\ 4cc\ 4ff\	.
4r	4f/	.
(8E-\L	(4.cc\	.
8F\	.	.
8E-\	.	.
8F\J	16a/LL	.
.	16f/JJ	.
=149	=149	=149
8D\L	4b-\	.
8F\	.	.
8D\	4bn\)	.
8F\J	.	.
8E-\L	(4.cc\	.
8F\	.	.
8E-\	.	.
8F\J	16a/LL	.
.	16f/JJ	.
=150	=150	=150
8D\L	4b-\)	.
8F\	.	.
8D\	4r	.
8F\J	.	.
8E-\L	8cc'\	.
8F\	(4cc\	.
8E-\	.	.
8F\J	16a/LL	.
.	16f/JJ	.
=151	=151	=151
8D\L	8b-\L	.
8F\	8b-'\)	.
8D\	8bn'\	.
8F\J	8b'\J	.
8E-\L	8cc'\	.
8F\	(4cc\	.
8E-\	.	.
8F\J	16a/LL	.
.	16f/JJ	.
=152	=152	=152
8D\)	4b-\)	.
*clefG2	*	*
(8f/L	.	.
8d/	4r	.
8f/J	.	.
8e-/L	(16bbn\LL	.
.	16ccc\	.
8f/	16ddd\	.
.	16ccc\JJ	.
8e-/	16bb-\LL	.
.	16aa\	.
8f/J	16gg\	.
.	16ff\JJ	.
=153	=153	=153
4d/)	16bb-\LL	.
.	16ff\	.
.	16ddd\	.
.	16bb-\JJ	.
4r	16fff\LL	.
.	16ddd\	.
.	16fff\	.
.	16ddd\JJ	.
4r	16fff\LL	.
.	16eee-\	.
.	16ddd\	.
.	16ccc\JJ	.
*clefF4	*	*
4D\ 4B-\	16bb-\LL	.
.	16aa\	.
.	16gg\	.
.	16ff\JJ	.
=154	=154	=154
4E-\ 4B-\	16gg\LL	.
.	16ee-\	.
.	16bb-\	.
.	16aa\JJ	.
4r	16bb-\LL	.
.	16aa\	.
.	16bb-\	.
.	16aa\JJ	.
4r	16bb-\LL	.
.	16aa\	.
.	16gg\	.
.	16ff\JJ	.
4E-\ 4B-\ 4c\	16ee-\LL	.
.	16dd\	.
.	16cc\	.
.	16b-\JJ	.
=155	=155	=155
(8F\L	16f\LL)	.
.	(16ff\	.
8d\	16gg\	.
.	16ff\JJ	.
8B-\	16ee-\LL	.
.	16dd\	.
8d\J	16cc\	.
.	16b-\JJ	.
8F\L	4.cc\	.
8e-\	.	.
8A\	.	.
8e-\J	16b-\LL	.
.	16cc\JJ)	.
=156	=156	=156
4B-\)	16dd\LL	.
.	16ee-\	.
.	16ff\	.
.	16ee-\JJ	.
8r	16dd\LL	.
.	16cc\	.
8c\	16b-\	.
.	16a\JJ	.
4d\	16b-\LL	.
.	16cc\	.
.	16dd\	.
.	16cc\JJ	.
8r	16b-/LL	.
.	16a-/	.
8DD/ 8D/	16g/	.
.	16f#/JJ	.
=157	=157	=157
4EE-/ 4E-/	16g/LL	.
.	16an/	.
.	16b-/	.
.	16a/JJ	.
4r	16g/LL	.
.	16fn/	.
.	16e-/	.
.	16d/JJ	.
2r	16c/LL	.
.	16d/	.
.	16e-/	.
.	16d/JJ	.
.	16c/LL	.
.	16B-/	.
.	16A/	.
.	16G/JJ	.
=158	=158	=158
1FFF 1FF	8F/L	.
.	16G/L	.
.	16A/JJ	.
.	16B-/LL	.
.	16c/	.
.	16d/	.
.	16e-/JJ	.
.	16g/LL	.
.	16f/	.
.	16e-/	.
.	16d/JJ	.
.	16e-/LL	.
.	16f/	.
.	16g/	.
.	16a/JJ	.
=159	=159	=159
4FF/ 4BB-/ 4D/	16b-/LL	.
.	16a/	.
.	16g/	.
.	16f/JJ	.
4r	16g/LL	.
.	16a/	.
.	16b-/	.
.	16cc/JJ	.
4FF/ 4BB-/ 4D/	16dd\LL	.
.	16cc\	.
.	16b-\	.
.	16a\JJ	.
4r	16b-\LL	.
.	16cc\	.
.	16dd\	.
.	16ee-\JJ	.
=160	=160	=160
4F\ 4B-\ 4d\	16ff\LL	.
.	16dd\	.
.	16ff\	.
.	16dd\JJ	.
4r	16bb-\LL	.
.	16ff\	.
.	16bb-\	.
.	16ff\JJ	.
2r	16ddd\LL	.
.	16bb-\	.
.	16ddd\	.
.	16bb-\JJ	.
.	16fff\LL	.
.	16ddd\	.
.	16fff\	.
.	16ddd\JJ	.
=161	=161	=161
1r	16bb-\LL	.
.	16ddd\	.
.	16bb-\	.
.	16ddd\JJ	.
.	16ff\LL	.
.	16bb-\	.
.	16ff\	.
.	16bb-\JJ	.
.	16dd\LL	.
.	16ff\	.
.	16dd\	.
.	16ff\JJ	.
.	16b-\LL	.
.	16dd\	.
.	16b-\	.
.	16dd\JJ	.
=162	=162	=162
(8F\L	4f/	.
8d\	.	.
8B-\	(4.ff\	.
8d\J	.	.
8F\L	.	.
8d\	16gg\LL	.
.	16ff\JJ	.
8B-\	16ee-\LL	.
.	16dd\	.
8d\J	16cc\	.
.	16b-\JJ)	.
=163	=163	=163
.	(32b-q/LLL	.
.	32ccq/	.
.	32ddq/JJJ	.
8F\L	1cc	.
8e-\	.	.
8A\	.	.
8e-\J	.	.
8F\L	.	.
8e-\	.	.
8A\	.	.
8e-\J	.	.
=164	=164	=164
.	32b-q/LLL	.
.	32ccq/JJJ	.
4B-\ 4d\)	8b-\L)	.
.	8b-\J	.
4B-\ 4d\	8r	.
.	8b-\	.
4r	8b-\L	.
.	8b-\J	.
*clefG2	*	*
4B-/ (4d/	8r	.
.	(8b-\	.
=165	=165	=165
4B-/ 4a/)	8cc\L)	.
.	8cc\J	.
4B-/ 4a/	8r	.
.	8cc\	.
4r	8cc\L	.
.	8cc\J	.
4B-/ (4a/	8r	.
.	(8cc\	.
=166	=166	=166
4B-/ 4a-/)	8dd\L)	.
.	8dd\J	.
4B-/ (4a-/	8r	.
.	(8dd\	.
4B-/ 4g/)	8ee-\L)	.
.	8ee-\J	.
4B-/ (4g/	8r	.
.	(8een\	.
=167	=167	=167
4B-/ 4d/	8ff\L)	.
.	8ff\J	.
4B-/ 4d/)	8r	.
.	(8ff#\	.
4B-/ 4e-/	8gg\L	.
.	8gg\)	.
4B-/ 4c/	8aan\	.
.	8aa\J	.
*clefF4	*	*
=168	=168	=168
8BB-\ 8B-\L	(16dd\LL	f
.	16bb-\	.
8BB-\ 8B-\J	16ddd\	.
.	16bb-\JJ	.
8r	16ddd\LL	.
.	16bb-\	.
8BB-\ (8B-\	16ddd\	.
.	16bb-\JJ	.
8D\ 8d\L)	16dd\LL	.
.	16bb-\	.
8D\ 8d\J	16ddd\	.
.	16bb-\JJ	.
8r	16ddd\LL	.
.	16bb-\	.
8BB-\ (8B-\	16ddd\	.
.	16bb-\JJ	.
=169	=169	=169
8GG\ 8G\L)	16dd\LL	.
.	16bb-\	.
8GG\ 8G\J	16ddd\	.
.	16bb-\JJ	.
8r	16ddd\LL	.
.	16bb-\	.
8GG\ (8G\	16ddd\	.
.	16bb-\JJ	.
8BB-\ 8B-\L)	16dd\LL	.
.	16bb-\	.
8BB-\ 8B-\J	16ddd\	.
.	16bb-\JJ	.
8r	16ddd\LL	.
.	16bb-\	.
(8GG/ 8G/	16ddd\	.
.	16bb-\JJ	.
=170	=170	=170
8DD/) 8D/L	16dd\LL	.
.	16bb-\	.
8DD/ 8D/J	16ddd\	.
.	16bb-\JJ	.
8r	16ddd\LL	.
.	16bb-\	.
(8DD/ 8D/	16ddd\	.
.	16bb-\JJ	.
8EE-/) 8E-/L	16dd\LL	.
.	16bb-\	.
8EE-/ 8E-/	16ddd\	.
.	16bb-\JJ	.
8EEn/ 8En/	16ddd\LL	.
.	16bb-\	.
8EE/ 8E/J	16ddd\)	.
.	16bb-\JJ	.
=171	=171	=171
*	*^	*
2FF;/ 2F;/	2ddd;/	4dd\ 4ff\ 4bb-\	.
.	.	4r;	.
2r	2r	8r	.
.	.	16f\LL	.
.	.	16a\JJ	.
.	.	16g\LL	.
.	.	16b-\	.
.	.	16a\	.
.	.	16cc\JJ	.
*	*v	*v	*
=172	=172	=172
1r	8b-/	.
.	(16a\LL	.
.	16cc\JJ	.
.	16b-\LL	.
.	16dd\	.
.	16cc\	.
.	16ee-\JJ	.
.	8dd\)	.
.	(16cc\LL	.
.	16ee-\JJ	.
.	16dd\LL	.
.	16ff\	.
.	16ee-\	.
.	16gg\JJ)	.
=173	=173	=173
8F\L	(4.ff\	.
8d\	.	.
8B-\	.	.
8d\J	8dd\	.
8F\L	4b-\	.
8d\	.	.
8B-\	4b-\)	.
8d\J	.	.
=174	=174	=174
8F\L	(4ee-\	.
8e-\	.	.
.	32ffq/LLL	.
.	32ee-q/	.
.	32ddq/	.
.	32ee-q/JJJ	.
8c\	4gg\)	.
8e-\J	.	.
8F\L	4a/	.
8e-\	.	.
8c\	4r	.
8e-\J	.	.
=175	=175	=175
8F\L	(4.ff\	.
8d-\	.	.
8B-\	.	.
8d-\J	8dd-\	.
8F\L	8b-\L)	.
8d-\	8b-\	.
8B-\	8b-\	.
8d-\J	8b-\J	.
=176	=176	=176
8F\L	(4ee-\	.
8e-\	.	.
.	32ffq/LLL	.
.	32ee-q/	.
.	32ddnq/	.
.	32ee-q/JJJ	.
8c\	4gg-\)	.
8e-\J	.	.
8F\L	4a/	.
8e-\	.	.
8c\	4r	.
8e-\J	.	.
=177	=177	=177
4G-\ 4d-\	8b-'\L	.
.	(8bb-\	.
4r	8ccc\	.
.	8ddd-\J	.
2r	8ccc\L	.
.	8bb-\	.
.	8aa-\	.
.	8gg-\J)	.
=178	=178	=178
*^	*	*
8r	1G-	(2ff\	.
(8B-/L	.	.	.
8c/	.	.	.
8d-/J)	.	.	.
(8d-/L	.	2een\)	.
8c/	.	.	.
(8c/)	.	.	.
8B-/J)	.	.	.
=179	=179	=179	=179
4A/	4F\	8ff\L	.
.	.	8ff\J	.
4A/	4F\	8r	.
.	.	8ff\	.
4r	4r	8ff\L	.
.	.	8ff\J	.
(4A/	4F\	8r	.
.	.	8ff\	.
*v	*v	*	*
=180	=180	=180
4Gn/ 4B-/)	8ff\L	.
.	8ff\J	.
4G/ 4B-/	8r	.
.	8ff\	.
4r	8ff\L	.
.	8ff\J	.
4G#/ (4Bn/	8r	.
.	8ff\	.
=181	=181	=181
*^	*	*
4A/ 4c/	2F\	8ff\L	.
.	.	8ff\J	.
4A/ 4c#/	.	8r	.
.	.	8ff\	.
4B-/ 4d/	2F\	8ff\L	.
.	.	8ff\J	.
4Bn/ 4d/)	.	8r	.
.	.	8ff\	.
*v	*v	*	*
=182	=182	=182
1F 1cn 1e-	(8ff\L	.
.	(8aa\)	.
.	8aa\	.
.	(8ccc\J)	.
.	8ccc\L	.
.	8eee-\)	.
.	(8eee-\	.
.	8ccc\J)	.
=183	=183	=183
1r	(8ccc\L	.
.	8aa\)	.
.	(8aa\	.
.	8ff\J)	.
.	(8ff\L	.
.	8een\)	.
.	(8ee\	.
.	8ff\J)	.
=184	=184	=184
(8F\L	(8ff\L	.
8A\)	8een\J)	.
(8A\	2ee-\	.
8c\J)	.	.
(8c\L	.	.
8e-\)	.	.
(8e-\	[4ee-\	.
8c\J)	.	.
=185	=185	=185
(8c\L	4ee-\]	.
8A\)	.	.
(8A\	(4ee-'\	.
8F\J)	.	.
(8F#\L	4ee-'\	.
8G\	.	.
8A-\	4ee-'\)	.
8An\J	.	.
=186	=186	=186
8B-\L)	4dd\	.
8B-\J	.	.
8r	4a-\ (4ff\	.
8B-\	.	.
8B-\L	4g\ 4ee-\	.
8B-\J	.	.
8r	4f#/ 4dd/)	.
8B-\	.	.
=187	=187	=187
8B-\L	4g\ 4ee-\	.
8B-\J	.	.
8r	4b-\ (4gg\	.
8B-\	.	.
8B-\L	4a-\ 4ffn\	.
8B-\J	.	.
8r	4g\ 4een\)	.
8B-\	.	.
=188	=188	=188
8B-\L	4a-\ 4ff\	.
8B-\J	.	.
8r	4ff\ (4aa-\	.
8B-\	.	.
8B-\L	4ee-\ 4gg\	.
8B-\J	.	.
8r	4dd\ 4ff#\)	.
8B-\	.	.
=189	=189	=189
4Bn\	8dd\ 8ff\ 8gg\L	f
.	8dd\ 8ff\ 8gg\J	.
4BBn\ 4B\	8r	.
.	8dd\ 8ff\ 8gg\	.
4C\ 4c\	8ee-\ 8gg\ 8eee-\L	.
.	8ee-\ 8gg\ 8eee-\J	.
4BB-\ 4B-\	8r	.
.	8cc\ 8ee-\ 8gg\	.
=190	=190	=190
4AA\ 4A\	8cc\ 8ee-\ 8ff\L	.
.	8cc\ 8ee-\ 8ff\J	.
4AA\ 4A\	8r	.
.	8cc\ 8ee-\ 8ff\	.
4BB-\ 4B-\	8dd\ 8ff\ 8ddd\L	.
.	8dd\ 8ff\ 8ddd\J	.
4AA\ 4A\	8r	.
.	8b-\ 8dd\ 8ff\	.
=191	=191	=191
4GG/ 4G/	8b-\ 8dd\ 8ee-\L	.
.	8b-\ 8dd\ 8ee-\J	.
4GG/ 4G/	8r	.
.	8b-\ 8dd\ 8ee-\	.
4AA\ 4A\	8cc\ 8ee-\ 8ccc\L	.
.	8cc\ 8ee-\ 8ccc\J	.
4GG/ 4G/	8r	.
.	8a\ 8cc\ 8ee-\	.
=192	=192	=192
4FF#/ 4F#/	8a\ 8cc\ 8dd\L	.
.	8a\ 8cc\ 8dd\J	.
4FF#/ 4F#/	8r	.
.	8a\ 8cc\ 8dd\	.
4GG/ 4G/	8b-\ 8dd\ 8bb-\L	.
.	8b-\ 8dd\ 8bb-\J	.
4FFn/ 4Fn/	8r	.
.	8g\ 8b-\ 8dd\	.
=193	=193	=193
8EE-/ 8E-/	8g\ 8b-\ 8cc\L	.
8G\L	8g\ 8b-\ 8cc\J	.
8B-\	8r	.
8G\J	(8cc\	.
8E-\L	8bb-\L)	.
8G\	8bb-'\	.
8B-\	8bb-\	.
8G\J	8cc\J	.
=194	=194	=194
8F\L	8dd'\L	.
8A-\	8dd'\J	.
8B-\	8r	.
8A-\J	(8dd\	.
8F\L	8bb-\L)	.
8A-\	8bb-'\	.
8B-\	8bb-\	.
8A-\J	8dd\J	.
=195	=195	=195
8G\L	8ee-'\L	.
8B-\	8ee-'\J	.
8e-\	8r	.
8B-\J	(8een\	.
8D\L	8ff\L)	.
8A-\	8ff'\J	.
8B-\	8r	.
8A-\J	(8ff#\	.
=196	=196	=196
8E-\L	8gg\L)	.
8e-\	8gg'\	.
8C\	8aan'\	.
8c\J	8aa'\J	.
8D\L	8bb-'\L	.
8d\	8bb-'\	.
8AAn\	8ccc'\	.
8An\J	8ccc'\J	.
=197	=197	=197
2BB-\ 2B-\	4.ddd-\	.
.	(16.bb-\LL	.
.	64aa\LL	.
.	64bb-\JJJJ	.
2GG-/ 2G-/	4.ddd-\)	.
.	(16.bb-\LL	.
.	64aa\LL	.
.	64bb-\JJJJ	.
=198	=198	=198
2EEn;/ 2En;/	2ddd-;\)	.
2r	16ddd-\LL	.
.	16bb-\	.
.	16gg\	.
.	16een\JJ	ppp
.	16dd-/LL	.
.	16b-/	.
.	16g/	.
.	16en/JJ	.
=199	=199	=199
*^	*	*
16d-/LL	4r	4r	.
16B-/	.	.	.
16G/	.	.	.
16En/JJ	.	.	.
16D-/LL	8.r	4r	.
16BB-/	.	.	.
16GG/JJ	.	.	.
16r	(16EEn\	.	.
[2F;/	2FFF;\ 2FF;\)	2r	.
*v	*v	*	*
=	=	=
32F/LLL]	4r	.
32A/	.	.
32G/	.	.
32F/	.	.
32G/	.	.
32A/	.	.
32B-/	.	.
32c/JJJ	.	.
2.r	32d/LLL	.
.	32e-/	.
.	32f/	.
.	32g/	.
.	32a/	.
.	32b-/	.
.	32cc/	.
.	32ddn/JJJ	.
.	32ee-\LLL	.
.	32ff\	.
.	32gg\	.
.	32aa\	.
.	32bb-\	.
.	32ccc\	.
.	32dddn\	.
.	32eee-\JJJ	.
.	8fff\	.
.	16.r;	.
.	32b-\	.
.	32b-q/LLL	.
.	32ccq/	.
.	32ddq/JJJ	.
2r	(2cc\	.
[2F\ [2A\ [2c\ [2e-\	24bn\LL	.
.	24cc\	.
.	24dd\	.
.	24ee-\	.
.	24ff\	.
.	24gg\	.
.	24aa\	.
.	24bb-\	.
.	24ccc\	.
.	24ddd\	.
.	24eee-\	.
.	24ddd\JJ	.
4F\] 4A\] 4c\] 4e-\]	16fff\LL	.
.	16eee-\)	.
.	16ddd'\	.
.	16ccc'\JJ	.
2.r	(16eee-\LL	.
.	16ddd\)	.
.	16ccc'\	.
.	16bb-'\JJ	.
.	(16ddd\LL	.
.	16ccc\)	.
.	16bb-'\	.
.	16aa'\JJ	.
.	(16ccc\LL	.
.	16bb-\)	.
.	16aa'\	.
.	16gg'\JJ	.
1r	(8bb-\L	.
.	8aa\)	.
.	8gg'\	.
.	8ff'\J	.
.	(8aa\L	.
.	8gg\)	.
.	8ff'\	.
.	8ee-'\J	.
1r	(8gg\L	.
.	8ff\)	.
.	8ee-'\	.
.	8dd'\J	.
.	(4ff\	.
.	4ee-\)	.
4r	4dd\	.
1r	4cc'\	.
.	8bn'\L	.
.	8cc'\	.
.	8dd-'\	.
.	8ddn'\J	.
.	8ee-;\	.
.	8een;\	.
=200	=200	=200
!! a tempo
4r	(4.ff\	p
4B-\	.	.
.	8dd\	.
4d\	4b-\)	.
4g\	4b-\	.
=201	=201	=201
4c\	(4ee-\	.
4e-\	4gg\)	.
4f\	4a/	.
4e-\	8r	.
.	8a/	.
=202	=202	=202
*^	*	*
4r	4d\	(8cc\L	.
.	.	8b-\)	.
2f/	(4A\	(8dd\	.
.	.	8cc\J)	.
.	4B-\)	(8ee-\L	.
.	.	8dd\)	.
4c/	4E-\	(8ff\	.
.	.	8ee-\J)	.
=203	=203	=203	=203
(2B-/	[2F\	(4.dd\	.
.	.	16ee-\LL	.
.	.	16dd\JJ	.
4A/)	4F\]	8cc\L	.
.	.	8dd\	.
4r	4r	8ee-\	.
.	.	8een\J)	.
*v	*v	*	*
=204	=204	=204
8BB-\L	(4.ff\	f
(8B-\	.	.
8d\	.	.
8B-\J)	24ee-\LL	.
.	24dd\	.
.	24cc\JJ	.
8GG\L	8b-\L)	.
(8G\	8b-\	.
8B-\	8b-\	.
8G\J)	8b-\J	.
=205	=205	=205
8CC/L	(4ee-\	.
(8C/	.	.
.	32ffq/LLL	.
.	32ee-q/	.
.	32ddq/	.
.	32ee-q/JJJ	.
8E-/	4gg\)	.
8C/J)	.	.
8FF\L	4a/	.
(8F\	.	.
8A\	8r	.
8F\J)	8ee-\	.
=206	=206	=206
4B-\	(12dd\L	.
.	12ff\	.
.	12bb-\J	.
4E-\	12gg\L	.
.	12ee-\	.
.	12cc\J	.
4F\	12ff\L	.
.	12dd\	.
.	12b-\J	.
4FF/	12ee-\L	.
.	12cc\	.
.	12a\J	.
=207	=207	=207
4D\ 4B-\	12b-\L)	.
.	12bb-\	.
.	12bb-\J	.
4r	12bb-\L	.
.	12bb-\	.
.	12bb-\J	.
4r	(12bb-\L	.
.	12aa\	.
.	12gg\J	.
4D\ 4B-\	12ff\L	.
.	12ee-\	.
.	12dd\J	.
=208	=208	=208
4E-\ 4B-\	12cc\L)	.
.	12gg\	.
.	12gg\J	.
4r	12gg\L	.
.	12gg\	.
.	12gg\J	.
4r	(12gg\L	.
.	12ff\	.
.	12ee-\J	.
4E-\ 4A\	12dd\L	.
.	12ee-\	.
.	12cc\J	.
=209	=209	=209
*^	*	*
2.B-/	4D\	16een\LL	.
.	.	16ff\	.
.	.	16gg\	.
.	.	16ff\JJ	.
.	4G\	16ee-\LL	.
.	.	16dd\	.
.	.	16cc\	.
.	.	16b-\JJ)	.
.	4E-\	(2cc\	.
4A/	4F\	.	.
*v	*v	*	*
=210	=210	=210
.	16b-q/LL	.
.	16ccq/JJ	.
4D\ 4B-\	8b-\)	.
.	(16bb-\LL	.
.	16aa\JJ	.
4r	16bb-\LL	.
.	16aa\	.
.	16bb-\	.
.	16aa\JJ	.
4r	16bb-\LL	.
.	16aa\	.
.	16gg\	.
.	16ff\JJ	.
4D\ 4B-\	16ee-\LL	.
.	16dd\	.
.	16cc\	.
.	16b-\JJ	.
=211	=211	=211
4E-\ 4B-\	8g/)	.
.	(16gg\LL	.
.	16ff#\JJ	.
4r	16gg\LL	.
.	16ff#\	.
.	16gg\	.
.	16ff#\JJ	.
4r	16gg\LL	.
.	16ffn\	.
.	16ee-\	.
.	16dd\JJ	.
4E-\ 4c\	16cc/LL	.
.	16b-/	.
.	16a/	.
.	16g/JJ	.
=212	=212	=212
8F\L	8f/L	.
8d\	16g/L	.
.	16a/JJ	.
8B-\	16b-\LL	.
.	16cc\	.
8d\J	16dd\	.
.	16ee-\JJ	.
8F\L	16ff\LL	.
.	16gg\	.
8d\	16aa\	.
.	16bb-\JJ	.
8B-\	16ccc\LL	.
.	16ddd\	.
8d\J	16eee-\	.
.	16fff\JJ)	.
=213	=213	=213
8F\L	1ccc	.
8e-\	.	.
8A\	.	.
8e-\J	.	.
8F\L	.	.
8e-\	.	.
8A\	.	.
8e-\J	.	.
=214	=214	=214
.	(16bb-q/LL	.
.	16cccq/JJ)	.
8d\L	4bb-\	.
8B-\	.	.
8d\	4r	.
8B-\J	.	.
8d\L	4r	.
8B-\	.	.
8d\	8r	.
8B-\J	8b-\	p
*clefG2	*	*
=215	=215	=215
8f/L	(4.aa-\	.
8B-/	.	.
8f/	.	.
8B-/J	8ff\	.
8a-/L	4dd\)	.
8B-/	.	.
8a-/	4dd\	.
8B-/J	.	.
=216	=216	=216
8g/L	4ee-\	.
8B-/	.	.
8d/	4ff\	.
8B-/J	.	.
8e-/L	4gg\	.
8B-/	.	.
8e-/	8r	.
8B-/J	8gg\	.
=217	=217	=217
8c/L	(8ff\L	.
8B-/	8ee-\	.
8c/	8dd\	.
8B-/J	8cc\J	.
8c/L	8b-\L	.
8B-/	8an\	.
8c/	8ee-\	.
8B-/J	8a\J	.
=218	=218	=218
4B-/ 4d/	8b-\L)	.
.	8cc'\	.
4r	8dd'\	.
.	8ee-'\J	.
2r	8een'\L	.
.	8ff'\	.
.	8ff#'\	.
.	8gg'\J	.
=219	=219	=219
(8f/L	(4.aa-\	.
8B-/	.	.
8f/	.	.
8B-/J	24gg\LL	.
.	24ff\	.
.	24ee-\JJ	.
8a-/L	8dd\L	.
8B-/	8dd\)	.
8a-/	8dd\	.
8B-/J	8dd\J	.
=220	=220	=220
8g/L	4ee-\	.
8B-/	.	.
8d/	(8.ff\L	.
8B-/J	.	.
.	32ee-\LL	.
.	32ff\JJJ	.
8e-/L	4gg\)	.
8B-/	.	.
8e-/	8r	.
8B-/J	8gg\	.
=221	=221	=221
8c/L	(8ff\L	.
8B-/	8ee-\	.
8c/	8dd\	.
8B-/J	8cc\J	.
8c/L	8b-\L	.
8B-/	8an\	.
8c/	8ee-\	.
8B-/J)	8a\J	.
=222	=222	=222
*^	*	*
4B-/ 4d/	2r	4b-\)	.
4r	.	8r	.
.	.	8dd\	.
*clefF4	*clefF4	*	*
(4c/	2F\	(8ff\L	.
.	.	8ee-\	.
4e-/)	.	8cc\	.
.	.	8a\J	.
=223	=223	=223	=223
4d/	4B-\	4b-\)	.
4r	4r	8r	.
.	.	(16dd\LL	.
.	.	16b-\JJ	.
(4c/	2F\	8ff\L	.
.	.	8ee-\	.
4e-/)	.	8cc\	.
.	.	8a\J	.
*v	*v	*	*
=224	=224	=224
4d/	4b-\)	.
4B-\	8r	.
.	8ff\	f
4FF/ 4F/	4cc\ 4ee-\ 4ff\ 4aa\	.
4FF/ 4F/	4cc\ 4ee-\ 4ff\ 4aa\	.
=225	=225	=225
4BBB-/ 4BB-/	4dd\ 4ff\ 4bb-\	.
4r	4r	.
2r	2r	.
==	==	==
*-	*-	*-
